images/illustrations/transparency.svg

<svg width="48" height="48" viewBox="0 0 48 48" fill="none" xmlns="http://www.w3.org/2000/svg">
<path fill-rule="evenodd" clip-rule="evenodd" d="M16.5944 2H15.5944V3V6.68233C13.9643 7.28255 12.4644 8.1463 11.1481 9.221L7.89602 7.36838L7.03713 6.87909L6.53792 7.73226L2.13459 15.2577L1.62369 16.1309L2.50271 16.6316L5.73997 18.4758C5.60157 19.2975 5.52964 20.1408 5.52964 21C5.52964 21.8592 5.60157 22.7025 5.73998 23.5242L2.50271 25.3684L1.62369 25.8691L2.13459 26.7423L6.53792 34.2678L7.03713 35.1209L7.89602 34.6316L11.1481 32.779C12.4644 33.8537 13.9643 34.7174 15.5944 35.3177V39H17.5944V34.6027V33.8691L16.8947 33.6488C15.0318 33.0622 13.3447 32.0863 11.932 30.818L11.3955 30.3363L10.769 30.6932L7.76492 32.4045L4.37171 26.6054L7.35296 24.9071L7.99263 24.5427L7.83468 23.8236C7.63499 22.9145 7.52964 21.97 7.52964 21C7.52964 20.03 7.63499 19.0855 7.83468 18.1764L7.99262 17.4574L7.35296 17.093L4.37171 15.3946L7.76492 9.59547L10.769 11.3068L11.3955 11.6637L11.932 11.182C13.3447 9.91371 15.0318 8.93782 16.8947 8.35117L17.5944 8.13085V7.39734V4H24.401V7.39734V8.13085L25.1007 8.35117C26.9636 8.93782 28.6507 9.91371 30.0634 11.182L30.5999 11.6637L31.2264 11.3068L34.2305 9.59547L37.6237 15.3946L34.6425 17.093L34.0028 17.4574L34.1607 18.1764C34.3604 19.0855 34.4658 20.03 34.4658 21C34.4658 21.97 34.3604 22.9145 34.1607 23.8236L36.1142 24.2527C36.3446 23.2037 36.4658 22.1152 36.4658 21C36.4658 20.1408 36.3938 19.2975 36.2554 18.4758L39.4927 16.6316L40.3717 16.1309L39.8608 15.2577L35.4575 7.73225L34.9583 6.87909L34.0994 7.36838L30.8473 9.221C29.531 8.14629 28.0312 7.28255 26.401 6.68233V3V2H25.401H16.5944ZM21.0006 28C24.8666 28 28.0006 24.866 28.0006 21C28.0006 17.134 24.8666 14 21.0006 14C17.1346 14 14.0006 17.134 14.0006 21C14.0006 24.866 17.1346 28 21.0006 28ZM21.0006 30C25.9712 30 30.0006 25.9706 30.0006 21C30.0006 16.0294 25.9712 12 21.0006 12C16.0301 12 12.0006 16.0294 12.0006 21C12.0006 25.9706 16.0301 30 21.0006 30ZM21.0006 23C22.1052 23 23.0006 22.1046 23.0006 21C23.0006 19.8954 22.1052 19 21.0006 19C19.8961 19 19.0006 19.8954 19.0006 21C19.0006 22.1046 19.8961 23 21.0006 23ZM21.0006 25C23.2098 25 25.0006 23.2091 25.0006 21C25.0006 18.7909 23.2098 17 21.0006 17C18.7915 17 17.0006 18.7909 17.0006 21C17.0006 23.2091 18.7915 25 21.0006 25Z" fill="#FF0033"/>
<path fill-rule="evenodd" clip-rule="evenodd" d="M24.6545 37.429C24.5142 37.2713 24.3899 37.1272 24.2826 37C24.3899 36.8728 24.5142 36.7287 24.6545 36.571C25.215 35.9411 26.0249 35.1023 27.0211 34.2659C29.0436 32.5679 31.691 31 34.5 31C37.309 31 39.9564 32.5679 41.9789 34.2659C42.9751 35.1023 43.785 35.9411 44.3455 36.571C44.4858 36.7287 44.6101 36.8728 44.7174 37C44.6101 37.1272 44.4858 37.2713 44.3455 37.429C43.785 38.0589 42.9751 38.8977 41.9789 39.7341C39.9564 41.4321 37.309 43 34.5 43C31.691 43 29.0436 41.4321 27.0211 39.7341C26.0249 38.8977 25.215 38.0589 24.6545 37.429ZM46.8037 36.405C46.8039 36.4053 46.8041 36.4055 46 37C46.8041 37.5945 46.8039 37.5947 46.8037 37.595L46.8032 37.5957L46.8018 37.5976L46.7976 37.6033L46.7835 37.6221C46.7716 37.6378 46.7547 37.6601 46.7329 37.6884C46.6894 37.745 46.6263 37.8258 46.5447 37.9273C46.3816 38.1302 46.1439 38.4166 45.8396 38.7585C45.2322 39.4411 44.353 40.3523 43.2649 41.2659C41.1186 43.0679 38.016 45 34.5 45C30.984 45 27.8814 43.0679 25.7351 41.2659C24.647 40.3523 23.7678 39.4411 23.1604 38.7585C22.8561 38.4166 22.6184 38.1302 22.4553 37.9273C22.3737 37.8258 22.3106 37.745 22.2671 37.6884C22.2453 37.6601 22.2284 37.6378 22.2165 37.6221L22.2024 37.6033L22.1982 37.5976L22.1968 37.5957L22.1963 37.595C22.1961 37.5947 22.1959 37.5945 23 37C22.1959 36.4055 22.1961 36.4053 22.1963 36.405L22.1968 36.4043L22.1982 36.4024L22.2024 36.3967L22.2165 36.3779C22.2284 36.3622 22.2453 36.3399 22.2671 36.3116C22.3106 36.255 22.3737 36.1742 22.4553 36.0727C22.6184 35.8698 22.8561 35.5834 23.1604 35.2415C23.7678 34.5589 24.647 33.6477 25.7351 32.7341C27.8814 30.9321 30.984 29 34.5 29C38.016 29 41.1186 30.9321 43.2649 32.7341C44.353 33.6477 45.2322 34.5589 45.8396 35.2415C46.1439 35.5834 46.3816 35.8698 46.5447 36.0727C46.6263 36.1742 46.6894 36.255 46.7329 36.3116C46.7547 36.3399 46.7716 36.3622 46.7835 36.3779L46.7976 36.3967L46.8018 36.4024L46.8032 36.4043L46.8037 36.405ZM46 37L46.8041 36.4055C47.0653 36.7588 47.0653 37.2412 46.8041 37.5945L46 37ZM22.1959 36.4055L23 37L22.1959 37.5945C21.9347 37.2412 21.9347 36.7588 22.1959 36.4055ZM36.5 37C36.5 38.1046 35.6046 39 34.5 39C33.3954 39 32.5 38.1046 32.5 37C32.5 35.8954 33.3954 35 34.5 35C35.6046 35 36.5 35.8954 36.5 37ZM38.5 37C38.5 39.2091 36.7091 41 34.5 41C32.2909 41 30.5 39.2091 30.5 37C30.5 34.7909 32.2909 33 34.5 33C36.7091 33 38.5 34.7909 38.5 37Z" fill="white"/>
</svg>

<svg width="48" height="48" fill="none" xmlns="http://www.w3.org/2000/svg"><path fill-rule="evenodd" clip-rule="evenodd" d="M16.594 2h-1v4.682a15.5 15.5 0 00-4.446 2.539L7.896 7.368l-.859-.489-.5.853-4.402 7.526-.511.873.879.5 3.237 1.845a15.19 15.19 0 000 5.048l-3.237 1.844-.88.501.512.873 4.403 7.526.5.853.858-.49 3.252-1.852a15.502 15.502 0 004.446 2.539V39h2v-5.131l-.7-.22a13.5 13.5 0 01-4.962-2.831l-.537-.482-.626.357-3.004 1.711-3.393-5.799 2.981-1.698.64-.364-.158-.72c-.2-.909-.305-1.853-.305-2.823s.105-1.915.305-2.824l.158-.719-.64-.364-2.981-1.698 3.393-5.8 3.004 1.712.627.357.536-.482a13.5 13.5 0 014.963-2.83l.7-.221V4H24.4v4.131l.7.22a13.5 13.5 0 014.962 2.831l.537.482.626-.357 3.005-1.712 3.393 5.8-2.982 1.698-.64.364.159.72a13.194 13.194 0 010 5.647l1.953.429a15.19 15.19 0 00.141-5.777l3.238-1.844.879-.501-.511-.873-4.403-7.526-.5-.853-.859.49-3.252 1.852A15.498 15.498 0 0026.4 6.682V2h-9.807zm4.407 26a7 7 0 100-14 7 7 0 000 14zm0 2a9 9 0 100-18 9 9 0 000 18zm0-7a2 2 0 100-4 2 2 0 000 4zm0 2a4 4 0 100-8 4 4 0 000 8z" fill="#F03"/><path fill-rule="evenodd" clip-rule="evenodd" d="M24.654 37.429c-.14-.158-.264-.302-.371-.429a23.09 23.09 0 012.739-2.734C29.043 32.568 31.69 31 34.5 31s5.456 1.568 7.479 3.266A23.09 23.09 0 0144.717 37a23.09 23.09 0 01-2.738 2.734C39.956 41.432 37.309 43 34.5 43s-5.456-1.568-7.479-3.266a23.09 23.09 0 01-2.367-2.305zm22.15-1.024L46 37l.804.595-.002.003-.004.005-.015.02-.05.065a21.892 21.892 0 01-.893 1.07 25.093 25.093 0 01-2.575 2.508C41.119 43.068 38.016 45 34.5 45c-3.516 0-6.619-1.932-8.765-3.734a25.093 25.093 0 01-3.28-3.339 14.08 14.08 0 01-.188-.239l-.05-.066-.015-.019-.004-.005-.001-.002v-.001L23 37l-.804-.595.002-.003.004-.005.014-.02.051-.065.188-.24a25.093 25.093 0 013.28-3.339C27.881 30.933 30.984 29 34.5 29c3.516 0 6.619 1.932 8.765 3.734a25.093 25.093 0 013.28 3.339c.081.101.144.182.188.239l.05.066.015.019.004.005.001.002v.001zM46 37l.804-.594a1 1 0 010 1.188L46 37zm-23.804-.594L23 37l-.804.594a1 1 0 010-1.188zM36.5 37a2 2 0 11-4 0 2 2 0 014 0zm2 0a4 4 0 11-8 0 4 4 0 018 0z" fill="#fff"/></svg>
